X:28
T:Franklin is fled far away
Z:Jack Campin - http://www.campin.me.uk
S:Blaikie MS (NLS MS.1578) p11, Blaikie #27
M:3/4
L:1/4
V:1 midi program 1 74
V:2 midi program 1 46 bass middle = d transpose -24
Q:1/4=100
K:F
[V:1] F G A/G/|F D    C   |D F  G    |A2        G/F/|
[V:2] f c c   |f b    a   |b a  g    |f2        z   |
%
[V:1] B B=B/c/|A2     G/F/|G2   A/G/ |F3           ||
[V:2] g g g   |f2     d   |c2   c    |F3           ||
%
[V:1] c c d/f/|A2     G/F/|f d  c/A/ |G/F/ G/A/ G   |
[V:2] F f f   |F f    f   |a b  f    |c    c'   c'  |
%
[V:1] F D C   |F d/f/ c/A/|G2   A/>G/|F3           |]
[V:2] f b a   |f b    a/f/|c c' c'   |f3           |]
W:Transcription (c) Jack Campin 2009, no mirroring or republication without permission

